X:340
T: Miss Casey's
S: J.O'Brien: "Irish Folk Dance Music"
Z: B.Black
M: 6/8
L: 1/8
R: jig
K: Edor
B,/D/ | EFE EDB, | GFG AGA | BdB ABA | GEE DB,D |
EFE EDB, | GFG AGA | BdB ABA | GEE E2 :|
d | efe edB | AGA def | edB ABA | GEE DB,D |
efe edB | AGA def | edB ABA | GEE E2 d |
efe edB | AGA def | edB ABA | GEE DB,D |
EFE EDB, | GFG AGA | BdB ABA | GEE E2 ||
